X:1
T:Title
%%score 1 2
L:1/8
Q:1/4=83
M:6/8
K:C
V:1 treble nm="Grand Piano, Soprano"
V:2 bass nm="Choir Pad, Gramercy Park, 77.77 D"
V:1
 [Ge]>[Fd][Ec] [FA]2 [Fc] | [Fd]>c[FA] [EG]3 | [EG]>[FA][EG] [CE]2 [EG] | [FA]>[EG][CE] [B,D]3 | %4
w: By~Daniel~T.~McFarlan,~1873 * * * *||||
 [Ge]>[Fd][Ec] [FA]2 [Fc] | [Fd]>c[FA] [EG]3 | [FA]2 [FA] [EG]2 [Gc] | [Ge]2 [Fd] [Ec]3 | %8
w: ||||
 [DB]>[Ec][Fd] [Ec]2 [EG] | [Gc]>d[Ge] [Gd]3 | [Ec]2 [Ec] [DB]2 [DG] | [GB]2 [^FA] G3 | %12
w: ||||
 [Ge]>[Fd][Ec] [FA]2 [Fc] | [Fd]>c[FA] [EG]3 | [FA]2 [FA] [EG]2 [Gc] | [Ge]2 [Fd] [Ec]3- | %16
w: ||||
 [Ec]3 z3 |] %17
w: |
V:2
 [C,C]2 [C,C] [F,C]2 [F,A,] | [F,A,]2 [F,C] [C,C]3 | [C,C]2 [C,C] [C,G,]2 [C,C] | %3
 [C,C]2 [E,G,] G,3 | [C,C]2 [C,C] [F,C]2 [F,A,] | [F,A,]2 [F,C] [C,C]3 | %6
 [F,C]2 [F,C] [C,C]2 [E,C] | [G,C]2 [G,B,] [C,C]3 | G,2 G, [C,G,]2 [C,C] | %9
 [E,C]>[D,B,][C,C] [G,B,]3 | [C,G,]2 [C,G,] [D,G,]2 [D,B,] | [D,D]2 [D,C] [G,B,]3 | %12
 [C,C]2 [C,C] [F,C]2 [F,A,] | [F,A,]2 [F,C] [C,C]3 | [F,C]2 [F,C] [C,C]2 [E,C] | %15
 [G,C]2 [G,B,] [C,C]3- | [C,C]3 z3 |] %17

